X:1
T:Title
%%score 1 ( 2 3 )
L:1/8
Q:1/4=75
M:6/8
K:F
V:1 treble nm="Oboe, Soprano"
V:2 bass nm="Oboe, Bass"
V:3 bass 
V:1
 z3 z2 [CF] | [FA][FA][FA] [Fc][FA][CF] | [A,C]3 [CF]2 [CF] | [CE][CE][CE] [CG][CF][CE] | %4
 [CF]3 [FA]2 [CF] | [FA][FA][FA] [FA][CG][CF] | [FA]3 [Fc]2 [Fd] | %7
 [Fc][CA][CF] [EA][EA][Q:1/4=75][CG][Q:1/4=12] | [CF]6 |[M:9/8] [FA][F_A][F=A] [CF]3 [CF]3 | %10
 [Fc][F=B][Fc] [FA]3 [FA]3 | [EG][EG][FA] [GB]3 [EG]3 | [CF][CF][CG] [FA]3 [CF]3 | %13
 [FA][F_A][F=A] [CF]3 [CF]3 | [Fc][F=B][Fc] [FA]3 [FA]3 | F[FG][FA] [FB]3 [Fd]3 | %16
 [Fc][FA][CG] [CF]6 |] %17
V:2
 z3 z2 [F,A,] | [F,C][F,C][F,C] [F,A,][F,C][F,A,] | F,3 [F,A,]2 [F,A,] | %3
w: 1.~I'm~|in~ the~ Lord's~ sa cred~ pa|vil ion;~ I~|
 [C,G,][C,G,][C,G,] [C,B,][C,A,][C,G,] | A,3 z3 | [F,C][F,C][F,C] [F,C][F,B,][F,A,] | %6
w: rest~ in~ the~ ho li est~|place;~|king dom~ and~ all~ its~ do|
 [F,C]3 [F,A,]2 [B,,B,] | [C,A,][C,F,][C,A,] [C,C][C,C][C,B,] | [F,,F,A,]6 | %9
w: min ion~ I've~|found~ with~ a bun dance~ of~|grace.~|
[M:9/8] [F,C][F,=B,][F,C] [F,A,]3 [F,A,]3 | [F,A,][F,_A,][F,=A,] [F,C]3 [F,C]3 | %11
w: ||
 [C,C][C,C][C,C] [C,C]3 [C,B,]3 | [F,A,][F,A,][F,B,] [F,C]3 [F,A,]3 | %13
w: ||
 [F,C][F,=B,][F,C] [F,A,]3 [F,A,]3 | [F,A,][F,_A,][F,=A,] [F,C]3 [F,C]3 | %15
w: ||
 [_E,A,][D,A,][C,C] [B,,D]3 [B,,B,]3 | [C,A,][C,C][C,B,] [F,,F,A,]6 |] %17
w: ||
V:3
 x6 | x6 | x6 | x6 | F,3- [F,C]2 [F,A,] | x6 | x6 | x6 | x6 |[M:9/8] x9 | x9 | x9 | x9 | x9 | x9 | %15
w: ||||* * His~|||||||||||
 x9 | x9 |] %17
w: ||

